X: 26481
T: Michael Connell's
R: reel
M: 4/4
K: Gminor
BdcB|:G3G DGB,G|DGGG BdcB|F3 F GFDC|DB,FB, BdcB|
G3G DGB,G|DGGG BdcB|fBdc ccdc|1 cBBB BdcB:|2 cBBB BccB||
|:f3B g3B|BccB bBaB|g3f gbgf|dccc BccB|
f2BB g2gB|BccB bBaB|g3f gbgf|1 dccc BccB:|2 dccc BdcB||

